images/bullet.svg

<svg width="16" height="16" viewBox="0 0 16 16" fill="none" xmlns="http://www.w3.org/2000/svg">
<rect width="16" height="16" rx="8" fill="#FFECE5"/>
<path d="M6.83187 11.6667C6.67251 11.6667 6.51345 11.6084 6.39175 11.4916L3.46153 8.67939L4.34178 7.83429L6.83187 10.2241L11.812 5.44446L12.6923 6.28956L7.27199 11.4916C7.15029 11.6084 6.99124 11.6667 6.83187 11.6667Z" fill="#EE421D"/>
</svg>

<svg xmlns="http://www.w3.org/2000/svg" width="16" height="16" fill="none"><rect width="16" height="16" fill="#FFECE5" rx="8"/><path fill="#EE421D" d="M6.832 11.667a.63.63 0 0 1-.44-.175l-2.93-2.813.88-.845 2.49 2.39 4.98-4.78.88.846-5.42 5.202a.63.63 0 0 1-.44.175"/></svg>
